images/11988145.svg

<?xml version="1.0" encoding="UTF-8"?>
<svg xmlns="http://www.w3.org/2000/svg" xmlns:xlink="http://www.w3.org/1999/xlink" width="300pt" height="300pt" viewBox="0 0 300 300" version="1.1">
<defs>
<g>
<symbol overflow="visible" id="glyph0-0">
<path style="stroke:none;" d="M 0.796875 2.828125 L 0.796875 -11.28125 L 8.796875 -11.28125 L 8.796875 2.828125 Z M 1.703125 1.9375 L 7.90625 1.9375 L 7.90625 -10.390625 L 1.703125 -10.390625 Z M 1.703125 1.9375 "/>
</symbol>
<symbol overflow="visible" id="glyph0-1">
<path style="stroke:none;" d="M 1.578125 -11.671875 L 3.703125 -11.671875 L 8.875 -1.90625 L 8.875 -11.671875 L 10.40625 -11.671875 L 10.40625 0 L 8.28125 0 L 3.109375 -9.765625 L 3.109375 0 L 1.578125 0 Z M 1.578125 -11.671875 "/>
</symbol>
<symbol overflow="visible" id="glyph0-2">
<path style="stroke:none;" d="M 1.578125 -11.671875 L 3.15625 -11.671875 L 3.15625 -6.890625 L 8.890625 -6.890625 L 8.890625 -11.671875 L 10.46875 -11.671875 L 10.46875 0 L 8.890625 0 L 8.890625 -5.5625 L 3.15625 -5.5625 L 3.15625 0 L 1.578125 0 Z M 1.578125 -11.671875 "/>
</symbol>
<symbol overflow="visible" id="glyph0-3">
<path style="stroke:none;" d="M 6.3125 -10.59375 C 5.164062 -10.59375 4.253906 -10.164062 3.578125 -9.3125 C 2.898438 -8.457031 2.5625 -7.296875 2.5625 -5.828125 C 2.5625 -4.359375 2.898438 -3.195312 3.578125 -2.34375 C 4.253906 -1.488281 5.164062 -1.0625 6.3125 -1.0625 C 7.457031 -1.0625 8.363281 -1.488281 9.03125 -2.34375 C 9.695312 -3.195312 10.03125 -4.359375 10.03125 -5.828125 C 10.03125 -7.296875 9.695312 -8.457031 9.03125 -9.3125 C 8.363281 -10.164062 7.457031 -10.59375 6.3125 -10.59375 Z M 6.3125 -11.875 C 7.945312 -11.875 9.253906 -11.328125 10.234375 -10.234375 C 11.210938 -9.140625 11.703125 -7.671875 11.703125 -5.828125 C 11.703125 -3.984375 11.210938 -2.507812 10.234375 -1.40625 C 9.253906 -0.3125 7.945312 0.234375 6.3125 0.234375 C 4.664062 0.234375 3.351562 -0.3125 2.375 -1.40625 C 1.394531 -2.507812 0.90625 -3.984375 0.90625 -5.828125 C 0.90625 -7.671875 1.394531 -9.140625 2.375 -10.234375 C 3.351562 -11.328125 4.664062 -11.875 6.3125 -11.875 Z M 6.3125 -11.875 "/>
</symbol>
<symbol overflow="visible" id="glyph1-0">
<path style="stroke:none;" d="M 0.640625 2.296875 L 0.640625 -9.171875 L 7.140625 -9.171875 L 7.140625 2.296875 Z M 1.375 1.578125 L 6.421875 1.578125 L 6.421875 -8.4375 L 1.375 -8.4375 Z M 1.375 1.578125 "/>
</symbol>
<symbol overflow="visible" id="glyph1-1">
<path style="stroke:none;" d="M 2.5 -1.078125 L 6.96875 -1.078125 L 6.96875 0 L 0.953125 0 L 0.953125 -1.078125 C 1.441406 -1.578125 2.101562 -2.25 2.9375 -3.09375 C 3.78125 -3.945312 4.3125 -4.5 4.53125 -4.75 C 4.9375 -5.207031 5.21875 -5.597656 5.375 -5.921875 C 5.539062 -6.242188 5.625 -6.554688 5.625 -6.859375 C 5.625 -7.367188 5.445312 -7.78125 5.09375 -8.09375 C 4.75 -8.40625 4.289062 -8.5625 3.71875 -8.5625 C 3.3125 -8.5625 2.882812 -8.492188 2.4375 -8.359375 C 2 -8.222656 1.523438 -8.007812 1.015625 -7.71875 L 1.015625 -9.015625 C 1.535156 -9.222656 2.019531 -9.378906 2.46875 -9.484375 C 2.914062 -9.597656 3.320312 -9.65625 3.6875 -9.65625 C 4.675781 -9.65625 5.460938 -9.40625 6.046875 -8.90625 C 6.628906 -8.414062 6.921875 -7.757812 6.921875 -6.9375 C 6.921875 -6.550781 6.847656 -6.179688 6.703125 -5.828125 C 6.554688 -5.484375 6.289062 -5.078125 5.90625 -4.609375 C 5.800781 -4.484375 5.460938 -4.125 4.890625 -3.53125 C 4.328125 -2.945312 3.53125 -2.128906 2.5 -1.078125 Z M 2.5 -1.078125 "/>
</symbol>
</g>
</defs>
<g id="surface41405">
<rect x="0" y="0" width="300" height="300" style="fill:rgb(100%,100%,100%);fill-opacity:1;stroke:none;"/>
<path style="fill:none;stroke-width:1.2;stroke-linecap:butt;stroke-linejoin:miter;stroke:rgb(0%,0%,0%);stroke-opacity:1;stroke-miterlimit:10;" d="M 181.421875 258.757812 L 143.234375 260.898438 "/>
<path style="fill:none;stroke-width:1.2;stroke-linecap:butt;stroke-linejoin:miter;stroke:rgb(0%,0%,0%);stroke-opacity:1;stroke-miterlimit:10;" d="M 177.101562 249.988281 L 146.550781 251.699219 "/>
<path style="fill:none;stroke-width:1.2;stroke-linecap:butt;stroke-linejoin:miter;stroke:rgb(0%,0%,0%);stroke-opacity:1;stroke-miterlimit:10;" d="M 198.664062 224.617188 L 181.421875 258.757812 "/>
<path style="fill:none;stroke-width:1.2;stroke-linecap:butt;stroke-linejoin:miter;stroke:rgb(0%,0%,0%);stroke-opacity:1;stroke-miterlimit:10;" d="M 143.234375 260.898438 L 122.285156 228.898438 "/>
<path style="fill:none;stroke-width:1.2;stroke-linecap:butt;stroke-linejoin:miter;stroke:rgb(0%,0%,0%);stroke-opacity:1;stroke-miterlimit:10;" d="M 122.285156 228.898438 L 139.527344 194.753906 "/>
<path style="fill:none;stroke-width:1.2;stroke-linecap:butt;stroke-linejoin:miter;stroke:rgb(0%,0%,0%);stroke-opacity:1;stroke-miterlimit:10;" d="M 132.042969 229.539062 L 145.835938 202.222656 "/>
<path style="fill:none;stroke-width:1.2;stroke-linecap:butt;stroke-linejoin:miter;stroke:rgb(0%,0%,0%);stroke-opacity:1;stroke-miterlimit:10;" d="M 122.285156 228.898438 L 84.09375 231.039062 "/>
<path style="fill:none;stroke-width:1.2;stroke-linecap:butt;stroke-linejoin:miter;stroke:rgb(0%,0%,0%);stroke-opacity:1;stroke-miterlimit:10;" d="M 139.527344 194.753906 L 177.714844 192.613281 "/>
<path style="fill:none;stroke-width:1.2;stroke-linecap:butt;stroke-linejoin:miter;stroke:rgb(0%,0%,0%);stroke-opacity:1;stroke-miterlimit:10;" d="M 139.527344 194.753906 L 129.050781 178.75 "/>
<path style="fill:none;stroke-width:1.2;stroke-linecap:butt;stroke-linejoin:miter;stroke:rgb(100%,0%,0%);stroke-opacity:1;stroke-miterlimit:10;" d="M 129.050781 178.75 L 118.578125 162.75 "/>
<path style="fill:none;stroke-width:1.2;stroke-linecap:butt;stroke-linejoin:miter;stroke:rgb(0%,0%,0%);stroke-opacity:1;stroke-miterlimit:10;" d="M 177.714844 192.613281 L 198.664062 224.617188 "/>
<path style="fill:none;stroke-width:1.2;stroke-linecap:butt;stroke-linejoin:miter;stroke:rgb(0%,0%,0%);stroke-opacity:1;stroke-miterlimit:10;" d="M 172.28125 200.742188 L 189.039062 226.34375 "/>
<path style="fill:none;stroke-width:1.2;stroke-linecap:butt;stroke-linejoin:miter;stroke:rgb(0%,0%,0%);stroke-opacity:1;stroke-miterlimit:10;" d="M 198.664062 224.617188 L 217.757812 223.542969 "/>
<path style="fill:none;stroke-width:1.2;stroke-linecap:butt;stroke-linejoin:miter;stroke:rgb(0%,0%,100%);stroke-opacity:1;stroke-miterlimit:10;" d="M 217.757812 223.542969 L 236.855469 222.472656 "/>
<path style=" stroke:none;fill-rule:nonzero;fill:rgb(100%,100%,100%);fill-opacity:1;" d="M 220.855469 210.972656 L 253.855469 210.972656 L 253.855469 233.972656 L 220.855469 233.972656 Z M 220.855469 210.972656 "/>
<g style="fill:rgb(0%,0%,100%);fill-opacity:1;">
  <use xlink:href="#glyph0-1" x="220.855469" y="225.824219"/>
  <use xlink:href="#glyph0-2" x="232.824219" y="225.824219"/>
</g>
<g style="fill:rgb(0%,0%,100%);fill-opacity:1;">
  <use xlink:href="#glyph1-1" x="244.855469" y="230.707031"/>
</g>
<path style=" stroke:none;fill-rule:nonzero;fill:rgb(100%,100%,100%);fill-opacity:1;" d="M 93.578125 153.25 L 118.578125 153.25 L 118.578125 172.25 L 93.578125 172.25 Z M 93.578125 153.25 "/>
<g style="fill:rgb(100%,0%,0%);fill-opacity:1;">
  <use xlink:href="#glyph0-2" x="93.578125" y="168.101562"/>
  <use xlink:href="#glyph0-3" x="105.609375" y="168.101562"/>
</g>
<path style="fill:none;stroke-width:1.2;stroke-linecap:butt;stroke-linejoin:miter;stroke:rgb(0%,0%,0%);stroke-opacity:1;stroke-miterlimit:10;" d="M 80.078125 229.007812 L 71.457031 246.082031 "/>
<path style="fill:none;stroke-width:1.2;stroke-linecap:butt;stroke-linejoin:miter;stroke:rgb(100%,0%,0%);stroke-opacity:1;stroke-miterlimit:10;" d="M 71.457031 246.082031 L 62.835938 263.152344 "/>
<path style="fill:none;stroke-width:1.2;stroke-linecap:butt;stroke-linejoin:miter;stroke:rgb(0%,0%,0%);stroke-opacity:1;stroke-miterlimit:10;" d="M 88.113281 233.066406 L 79.492188 250.136719 "/>
<path style="fill:none;stroke-width:1.2;stroke-linecap:butt;stroke-linejoin:miter;stroke:rgb(100%,0%,0%);stroke-opacity:1;stroke-miterlimit:10;" d="M 79.492188 250.136719 L 70.871094 267.210938 "/>
<path style="fill:none;stroke-width:1.2;stroke-linecap:butt;stroke-linejoin:miter;stroke:rgb(0%,0%,0%);stroke-opacity:1;stroke-miterlimit:10;" d="M 84.09375 231.039062 L 73.621094 215.035156 "/>
<path style="fill:none;stroke-width:1.2;stroke-linecap:butt;stroke-linejoin:miter;stroke:rgb(100%,0%,0%);stroke-opacity:1;stroke-miterlimit:10;" d="M 73.621094 215.035156 L 63.144531 199.035156 "/>
<path style=" stroke:none;fill-rule:nonzero;fill:rgb(100%,100%,100%);fill-opacity:1;" d="M 53.851562 255.683594 L 66.851562 255.683594 L 66.851562 274.683594 L 53.851562 274.683594 Z M 53.851562 255.683594 "/>
<g style="fill:rgb(100%,0%,0%);fill-opacity:1;">
  <use xlink:href="#glyph0-3" x="53.851562" y="270.535156"/>
</g>
<path style=" stroke:none;fill-rule:nonzero;fill:rgb(100%,100%,100%);fill-opacity:1;" d="M 38.144531 189.535156 L 63.144531 189.535156 L 63.144531 208.535156 L 38.144531 208.535156 Z M 38.144531 189.535156 "/>
<g style="fill:rgb(100%,0%,0%);fill-opacity:1;">
  <use xlink:href="#glyph0-2" x="38.144531" y="204.386719"/>
  <use xlink:href="#glyph0-3" x="50.175781" y="204.386719"/>
</g>
<path style="fill:none;stroke-width:1.2;stroke-linecap:butt;stroke-linejoin:miter;stroke:rgb(0%,0%,0%);stroke-opacity:1;stroke-miterlimit:10;" d="M 181.421875 130.828125 L 143.234375 132.96875 "/>
<path style="fill:none;stroke-width:1.2;stroke-linecap:butt;stroke-linejoin:miter;stroke:rgb(0%,0%,0%);stroke-opacity:1;stroke-miterlimit:10;" d="M 177.101562 122.054688 L 146.550781 123.769531 "/>
<path style="fill:none;stroke-width:1.2;stroke-linecap:butt;stroke-linejoin:miter;stroke:rgb(0%,0%,0%);stroke-opacity:1;stroke-miterlimit:10;" d="M 198.664062 96.683594 L 181.421875 130.828125 "/>
<path style="fill:none;stroke-width:1.2;stroke-linecap:butt;stroke-linejoin:miter;stroke:rgb(0%,0%,0%);stroke-opacity:1;stroke-miterlimit:10;" d="M 143.234375 132.96875 L 122.285156 100.964844 "/>
<path style="fill:none;stroke-width:1.2;stroke-linecap:butt;stroke-linejoin:miter;stroke:rgb(0%,0%,0%);stroke-opacity:1;stroke-miterlimit:10;" d="M 122.285156 100.964844 L 139.527344 66.820312 "/>
<path style="fill:none;stroke-width:1.2;stroke-linecap:butt;stroke-linejoin:miter;stroke:rgb(0%,0%,0%);stroke-opacity:1;stroke-miterlimit:10;" d="M 132.042969 101.609375 L 145.835938 74.292969 "/>
<path style="fill:none;stroke-width:1.2;stroke-linecap:butt;stroke-linejoin:miter;stroke:rgb(0%,0%,0%);stroke-opacity:1;stroke-miterlimit:10;" d="M 122.285156 100.964844 L 84.09375 103.105469 "/>
<path style="fill:none;stroke-width:1.2;stroke-linecap:butt;stroke-linejoin:miter;stroke:rgb(0%,0%,0%);stroke-opacity:1;stroke-miterlimit:10;" d="M 139.527344 66.820312 L 177.714844 64.679688 "/>
<path style="fill:none;stroke-width:1.2;stroke-linecap:butt;stroke-linejoin:miter;stroke:rgb(0%,0%,0%);stroke-opacity:1;stroke-miterlimit:10;" d="M 139.527344 66.820312 L 129.050781 50.820312 "/>
<path style="fill:none;stroke-width:1.2;stroke-linecap:butt;stroke-linejoin:miter;stroke:rgb(100%,0%,0%);stroke-opacity:1;stroke-miterlimit:10;" d="M 129.050781 50.820312 L 118.578125 34.816406 "/>
<path style="fill:none;stroke-width:1.2;stroke-linecap:butt;stroke-linejoin:miter;stroke:rgb(0%,0%,0%);stroke-opacity:1;stroke-miterlimit:10;" d="M 177.714844 64.679688 L 198.664062 96.683594 "/>
<path style="fill:none;stroke-width:1.2;stroke-linecap:butt;stroke-linejoin:miter;stroke:rgb(0%,0%,0%);stroke-opacity:1;stroke-miterlimit:10;" d="M 172.28125 72.808594 L 189.039062 98.414062 "/>
<path style="fill:none;stroke-width:1.2;stroke-linecap:butt;stroke-linejoin:miter;stroke:rgb(0%,0%,0%);stroke-opacity:1;stroke-miterlimit:10;" d="M 198.664062 96.683594 L 217.757812 95.613281 "/>
<path style="fill:none;stroke-width:1.2;stroke-linecap:butt;stroke-linejoin:miter;stroke:rgb(0%,0%,100%);stroke-opacity:1;stroke-miterlimit:10;" d="M 217.757812 95.613281 L 236.855469 94.542969 "/>
<path style=" stroke:none;fill-rule:nonzero;fill:rgb(100%,100%,100%);fill-opacity:1;" d="M 220.855469 83.042969 L 253.855469 83.042969 L 253.855469 106.042969 L 220.855469 106.042969 Z M 220.855469 83.042969 "/>
<g style="fill:rgb(0%,0%,100%);fill-opacity:1;">
  <use xlink:href="#glyph0-1" x="220.855469" y="97.894531"/>
  <use xlink:href="#glyph0-2" x="232.824219" y="97.894531"/>
</g>
<g style="fill:rgb(0%,0%,100%);fill-opacity:1;">
  <use xlink:href="#glyph1-1" x="244.855469" y="102.777344"/>
</g>
<path style=" stroke:none;fill-rule:nonzero;fill:rgb(100%,100%,100%);fill-opacity:1;" d="M 93.578125 25.316406 L 118.578125 25.316406 L 118.578125 44.316406 L 93.578125 44.316406 Z M 93.578125 25.316406 "/>
<g style="fill:rgb(100%,0%,0%);fill-opacity:1;">
  <use xlink:href="#glyph0-2" x="93.578125" y="40.167969"/>
  <use xlink:href="#glyph0-3" x="105.609375" y="40.167969"/>
</g>
<path style="fill:none;stroke-width:1.2;stroke-linecap:butt;stroke-linejoin:miter;stroke:rgb(0%,0%,0%);stroke-opacity:1;stroke-miterlimit:10;" d="M 80.078125 101.078125 L 71.457031 118.148438 "/>
<path style="fill:none;stroke-width:1.2;stroke-linecap:butt;stroke-linejoin:miter;stroke:rgb(100%,0%,0%);stroke-opacity:1;stroke-miterlimit:10;" d="M 71.457031 118.148438 L 62.835938 135.222656 "/>
<path style="fill:none;stroke-width:1.2;stroke-linecap:butt;stroke-linejoin:miter;stroke:rgb(0%,0%,0%);stroke-opacity:1;stroke-miterlimit:10;" d="M 88.113281 105.132812 L 79.492188 122.207031 "/>
<path style="fill:none;stroke-width:1.2;stroke-linecap:butt;stroke-linejoin:miter;stroke:rgb(100%,0%,0%);stroke-opacity:1;stroke-miterlimit:10;" d="M 79.492188 122.207031 L 70.871094 139.277344 "/>
<path style="fill:none;stroke-width:1.2;stroke-linecap:butt;stroke-linejoin:miter;stroke:rgb(0%,0%,0%);stroke-opacity:1;stroke-miterlimit:10;" d="M 84.09375 103.105469 L 73.621094 87.105469 "/>
<path style="fill:none;stroke-width:1.2;stroke-linecap:butt;stroke-linejoin:miter;stroke:rgb(100%,0%,0%);stroke-opacity:1;stroke-miterlimit:10;" d="M 73.621094 87.105469 L 63.144531 71.101562 "/>
<path style=" stroke:none;fill-rule:nonzero;fill:rgb(100%,100%,100%);fill-opacity:1;" d="M 53.851562 127.75 L 66.851562 127.75 L 66.851562 146.75 L 53.851562 146.75 Z M 53.851562 127.75 "/>
<g style="fill:rgb(100%,0%,0%);fill-opacity:1;">
  <use xlink:href="#glyph0-3" x="53.851562" y="142.601562"/>
</g>
<path style=" stroke:none;fill-rule:nonzero;fill:rgb(100%,100%,100%);fill-opacity:1;" d="M 38.144531 61.601562 L 63.144531 61.601562 L 63.144531 80.601562 L 38.144531 80.601562 Z M 38.144531 61.601562 "/>
<g style="fill:rgb(100%,0%,0%);fill-opacity:1;">
  <use xlink:href="#glyph0-2" x="38.144531" y="76.453125"/>
  <use xlink:href="#glyph0-3" x="50.175781" y="76.453125"/>
</g>
</g>
</svg>

<svg xmlns="http://www.w3.org/2000/svg" xmlns:xlink="http://www.w3.org/1999/xlink" width="300pt" height="300pt" viewBox="0 0 300 300"><defs><symbol overflow="visible"><path d="M.797 2.828v-14.11h8V2.83zm.906-.89h6.203v-12.33H1.703zm0 0"/></symbol><symbol overflow="visible" id="a"><path d="M1.578-11.672h2.125l5.172 9.766v-9.766h1.53V0H8.282L3.11-9.766V0H1.577zm0 0"/></symbol><symbol overflow="visible" id="b"><path d="M1.578-11.672h1.578v4.78H8.89v-4.78h1.58V0H8.89v-5.563H3.157V0H1.578zm0 0"/></symbol><symbol overflow="visible" id="d"><path d="M6.313-10.594c-1.15 0-2.06.43-2.735 1.28-.68.857-1.015 2.017-1.015 3.486 0 1.47.335 2.633 1.015 3.484.676.856 1.586 1.28 2.735 1.28 1.144.002 2.05-.424 2.718-1.28.665-.85 1-2.015 1-3.484 0-1.47-.335-2.63-1-3.484-.667-.852-1.573-1.282-2.717-1.282zm0-1.28c1.632 0 2.94.546 3.92 1.64.978 1.093 1.47 2.562 1.47 4.406 0 1.844-.492 3.32-1.47 4.422-.98 1.093-2.288 1.64-3.92 1.64-1.65 0-2.96-.546-3.938-1.64-.98-1.102-1.47-2.578-1.47-4.422 0-1.844.49-3.313 1.47-4.406.977-1.094 2.29-1.64 3.938-1.64zm0 0"/></symbol><symbol overflow="visible"><path d="M.64 2.297v-11.47h6.5v11.47zm.735-.72h5.047V-8.436H1.375zm0 0"/></symbol><symbol overflow="visible" id="c"><path d="M2.5-1.078h4.47V0H.952v-1.078c.488-.5 1.15-1.172 1.985-2.016C3.78-3.944 4.312-4.5 4.53-4.75c.407-.457.69-.848.845-1.172.164-.32.25-.633.25-.937 0-.507-.18-.92-.53-1.234-.345-.312-.806-.47-1.376-.47-.408.002-.837.072-1.283.205-.437.137-.914.352-1.42.64v-1.296c.518-.207 1.003-.363 1.452-.468.444-.114.85-.172 1.217-.172.99 0 1.774.25 2.36.75.582.492.875 1.148.875 1.97 0 .385-.074.756-.22 1.108-.147.344-.413.75-.796 1.22-.105.124-.445.483-1.015 1.077-.562.585-1.36 1.4-2.39 2.452zm0 0"/></symbol></defs><g><path fill="#fff" d="M0 0h300v300H0z"/><path d="M181.422 258.758l-38.188 2.14M177.102 249.988l-30.55 1.71M198.664 224.617l-17.242 34.14M143.234 260.898l-20.95-32M122.285 228.898l17.242-34.144M132.043 229.54l13.793-27.317M122.285 228.898l-38.19 2.14M139.527 194.754l38.188-2.14M139.527 194.754L129.05 178.75" stroke-width="1.2" stroke="#000" stroke-miterlimit="10" fill="none"/><path d="M129.05 178.75l-10.472-16" stroke-width="1.2" stroke="#f00" stroke-miterlimit="10" fill="none"/><path d="M177.715 192.613l20.95 32.004M172.28 200.742l16.76 25.602M198.664 224.617l19.094-1.074" stroke-width="1.2" stroke="#000" stroke-miterlimit="10" fill="none"/><path d="M217.758 223.543l19.097-1.07" stroke-width="1.2" stroke="#00f" stroke-miterlimit="10" fill="none"/><path d="M220.855 210.973h33v23h-33zm0 0" fill="#fff"/><g fill="#00f"><use xlink:href="#a" x="220.855" y="225.824"/><use xlink:href="#b" x="232.824" y="225.824"/></g><use xlink:href="#c" x="244.855" y="230.707" fill="#00f"/><path d="M93.578 153.25h25v19h-25zm0 0" fill="#fff"/><g fill="#f00"><use xlink:href="#b" x="93.578" y="168.102"/><use xlink:href="#d" x="105.609" y="168.102"/></g><path d="M80.078 229.008l-8.62 17.074" stroke-width="1.2" stroke="#000" stroke-miterlimit="10" fill="none"/><path d="M71.457 246.082l-8.62 17.07" stroke-width="1.2" stroke="#f00" stroke-miterlimit="10" fill="none"/><path d="M88.113 233.066l-8.62 17.07" stroke-width="1.2" stroke="#000" stroke-miterlimit="10" fill="none"/><path d="M79.492 250.137l-8.62 17.074" stroke-width="1.2" stroke="#f00" stroke-miterlimit="10" fill="none"/><path d="M84.094 231.04L73.62 215.034" stroke-width="1.2" stroke="#000" stroke-miterlimit="10" fill="none"/><path d="M73.62 215.035l-10.475-16" stroke-width="1.2" stroke="#f00" stroke-miterlimit="10" fill="none"/><path d="M53.852 255.684h13v19h-13zm0 0" fill="#fff"/><use xlink:href="#d" x="53.852" y="270.535" fill="#f00"/><path d="M38.145 189.535h25v19h-25zm0 0" fill="#fff"/><g fill="#f00"><use xlink:href="#b" x="38.145" y="204.387"/><use xlink:href="#d" x="50.176" y="204.387"/></g><path d="M181.422 130.828l-38.188 2.14M177.102 122.055l-30.55 1.715M198.664 96.684l-17.242 34.144M143.234 132.97l-20.95-32.005M122.285 100.965l17.242-34.145M132.043 101.61l13.793-27.317M122.285 100.965l-38.19 2.14M139.527 66.82l38.188-2.14M139.527 66.82l-10.476-16" stroke-width="1.2" stroke="#000" stroke-miterlimit="10" fill="none"/><path d="M129.05 50.82L118.58 34.816" stroke-width="1.2" stroke="#f00" stroke-miterlimit="10" fill="none"/><path d="M177.715 64.68l20.95 32.004M172.28 72.81l16.76 25.604M198.664 96.684l19.094-1.07" stroke-width="1.2" stroke="#000" stroke-miterlimit="10" fill="none"/><path d="M217.758 95.613l19.097-1.07" stroke-width="1.2" stroke="#00f" stroke-miterlimit="10" fill="none"/><path d="M220.855 83.043h33v23h-33zm0 0" fill="#fff"/><g fill="#00f"><use xlink:href="#a" x="220.855" y="97.895"/><use xlink:href="#b" x="232.824" y="97.895"/></g><use xlink:href="#c" x="244.855" y="102.777" fill="#00f"/><path d="M93.578 25.316h25v19h-25zm0 0" fill="#fff"/><g fill="#f00"><use xlink:href="#b" x="93.578" y="40.168"/><use xlink:href="#d" x="105.609" y="40.168"/></g><path d="M80.078 101.078l-8.62 17.07" stroke-width="1.2" stroke="#000" stroke-miterlimit="10" fill="none"/><path d="M71.457 118.148l-8.62 17.075" stroke-width="1.2" stroke="#f00" stroke-miterlimit="10" fill="none"/><path d="M88.113 105.133l-8.62 17.074" stroke-width="1.2" stroke="#000" stroke-miterlimit="10" fill="none"/><path d="M79.492 122.207l-8.62 17.07" stroke-width="1.2" stroke="#f00" stroke-miterlimit="10" fill="none"/><path d="M84.094 103.105l-10.473-16" stroke-width="1.2" stroke="#000" stroke-miterlimit="10" fill="none"/><path d="M73.62 87.105L63.146 71.102" stroke-width="1.2" stroke="#f00" stroke-miterlimit="10" fill="none"/><path d="M53.852 127.75h13v19h-13zm0 0" fill="#fff"/><use xlink:href="#d" x="53.852" y="142.602" fill="#f00"/><path d="M38.145 61.602h25v19h-25zm0 0" fill="#fff"/><g fill="#f00"><use xlink:href="#b" x="38.145" y="76.453"/><use xlink:href="#d" x="50.176" y="76.453"/></g></g></svg>
